packages/plus/src/components/Navigation/__stories__/assets/logo-small.svg

<svg width="19" height="22" viewBox="0 0 19 22" fill="none" xmlns="http://www.w3.org/2000/svg">
    <path d="M7.02843 15.3263C7.03314 16.0452 7.623 16.6241 8.34594 16.6195L11.9026 16.6138C12.7174 16.513 13.3425 15.8464 13.3869 15.0312V9.93739C13.3869 9.22322 12.8046 8.64427 12.0863 8.64427C11.3681 8.64427 10.7858 9.22322 10.7858 9.93739V13.173C10.7858 13.6388 10.4061 14.0163 9.93766 14.0163H8.32898C7.60603 14.021 7.02377 14.6075 7.02843 15.3263Z" fill="#151A2D"/>
    <path d="M6.21705 12.8132C5.49879 12.8132 4.91653 12.2342 4.91653 11.5201V6.42347C4.95932 5.60811 5.58332 4.9403 6.39799 4.83799H9.95745C10.6768 4.83941 11.2626 5.41315 11.2749 6.1283C11.2787 6.4742 11.1435 6.80731 10.8994 7.05376C10.6552 7.3002 10.3223 7.43962 9.97442 7.4411H8.3629C7.89447 7.4411 7.51474 7.81868 7.51474 8.28444V11.5201C7.51474 12.2331 6.9342 12.8116 6.21705 12.8132Z" fill="#151A2D"/>
    <path fill-rule="evenodd" clip-rule="evenodd" d="M4.08533 1.28424e-05H10.5399C12.5823 -0.00370526 14.5426 0.800056 15.9887 2.23426C17.4348 3.66846 18.2482 5.61544 18.2497 7.64631V17.8423C18.0414 19.7717 16.4828 21.2814 14.5375 21.4377H7.71264C5.66768 21.4407 3.70548 20.6349 2.25867 19.1979C0.811859 17.7609 -0.000751363 15.8107 5.21307e-07 13.7774V4.06774C0.00155511 1.82404 1.8288 0.00467379 4.08533 1.28424e-05ZM14.1484 4.10764C13.1864 3.14847 11.8796 2.61006 10.5172 2.61157L4.18428 2.60033C3.30715 2.61265 2.60351 3.32483 2.60668 4.19705V13.7296C2.60594 15.0815 3.14573 16.3783 4.10716 17.3343C5.06858 18.2902 6.37277 18.8269 7.73243 18.8262H14.2859C14.9742 18.7307 15.5222 18.2051 15.643 17.5246V7.72221C15.6482 6.36762 15.1104 5.0668 14.1484 4.10764Z" fill="#151A2D"/>
</svg>

<svg xmlns="http://www.w3.org/2000/svg" width="19" height="22" fill="none" viewBox="0 0 19 22">
    <path fill="#151A2D" d="M7.028 15.326a1.306 1.306 0 0 0 1.318 1.293l3.557-.005a1.69 1.69 0 0 0 1.484-1.583V9.937c0-.714-.582-1.293-1.3-1.293s-1.301.58-1.301 1.293v3.236c0 .466-.38.843-.848.843H8.329a1.305 1.305 0 0 0-1.3 1.31m-.812-2.513c-.718 0-1.3-.579-1.3-1.293V6.423a1.69 1.69 0 0 1 1.481-1.585h3.56a1.316 1.316 0 0 1 1.317 1.29c.004.346-.132.68-.376.926a1.3 1.3 0 0 1-.925.387H8.363a.846.846 0 0 0-.848.843v3.236c0 .713-.58 1.292-1.298 1.293"/>
    <path fill="#151A2D" fill-rule="evenodd" d="M4.085 0h6.455a7.72 7.72 0 0 1 5.449 2.234 7.63 7.63 0 0 1 2.26 5.412v10.196a4.05 4.05 0 0 1-3.711 3.596H7.712a7.72 7.72 0 0 1-5.454-2.24A7.64 7.64 0 0 1 0 13.778v-9.71C.002 1.824 1.829.005 4.085 0m10.063 4.108a5.14 5.14 0 0 0-3.63-1.496L4.183 2.6a1.595 1.595 0 0 0-1.577 1.597v9.533a5.08 5.08 0 0 0 1.5 3.604 5.14 5.14 0 0 0 3.625 1.492h6.554a1.6 1.6 0 0 0 1.357-1.301V7.722a5.08 5.08 0 0 0-1.495-3.614" clip-rule="evenodd"/>
</svg>
